X:1
T:Helft Mir Gott’s Güte, 76.76.67.76
T:Helft Mir Gott’s Güte, 76.76.67.76
T:Wolfgang Figulus, 1575
T:Public Domain Courtesy of the Cyber Hymnal™
C:Wolfgang Figulus, 1575
Z:Public Domain
Z:Courtesy of the Cyber Hymnal™
%%score ( 1 2 ) ( 3 4 )
L:1/8
Q:1/4=115
M:4/4
K:F
V:1 treble 
V:2 treble 
V:3 bass 
V:4 bass 
V:1
 [DG]4 [DG]2 [_EG]2 | [DB]2 [EB]2 (A3 B) | [Fc]2 [Fd]2 [DB]2 [_EG]2 | [DG]2 [D^F]2 [DG]4 | %4
 [DG]4 [DG]2 [_EG]2 | [DB]2 [EB]2 (A3 B) | [Fc]2 [Fd]2 [DB]2 [_EG]2 | [DG]2 [D^F]2 [DG]4 | %8
 z2 [Dd]2 [_Ec]2 [FB]2 | [FA]2 [EG]2 [FA]4 | z2 [FA]2 [FB]2 [Fc]2 | [DB]2 [EB]2 ([FA]3 [EG]) | %12
 [FA]2 [FA]2 [FB]2 [Fc]2 | [DB]2 [EB]2 (A3 B) | [Fc]2 [Fd]2 [DB]2 [_EG]2 | [DG]2 [D^F]2 [DG]4 |] %16
V:2
 x8 | x4 F4 | x8 | x8 | x8 | x4 F4 | x8 | x8 | x8 | x8 | x8 | x8 | x8 | x4 F4 | x8 | x8 |] %16
V:3
 [G,B,]4 [G,B,]2 [C,C]2 | [G,B,]2 G,2 (C3 B,) | [F,A,]2 [D,A,]2 [G,B,]2 [C,C]2 | %3
 [D,A,]2 [D,A,]2 [G,,=B,]4 | [G,B,]4 [G,B,]2 [C,C]2 | [G,B,]2 G,2 (C3 B,) | %6
 [F,A,]2 [D,A,]2 [G,B,]2 [C,C]2 | [D,A,]2 [D,A,]2 [G,,=B,]4 | z2 [B,,B,]2 [C,G,]2 [D,D]2 | %9
 [F,C]2 [G,B,]2 [F,C]4 | z2 [F,C]2 [D,F,]2 [F,A,]2 | [G,B,]2 G,2 ([F,C]3 [G,B,]) | %12
 [F,C]2 [F,C]2 [D,F,]2 [F,A,]2 | [G,B,]2 G,2 (C3 B,) | [F,A,]2 [D,A,]2 [G,B,]2 [C,C]2 | %15
 [D,A,]2 [D,A,]2 [G,,=B,]4 |] %16
V:4
 x8 | x2 G,2 F,4 | x8 | x8 | x8 | x2 G,2 F,4 | x8 | x8 | x8 | x8 | x8 | x2 G,2 x4 | x8 | %13
 x2 G,2 F,4 | x8 | x8 |] %16

